usr/share/icons/biglinux-icons-material/scalable/apps/cantata.svg

<?xml version="1.0" encoding="UTF-8" standalone="no"?>
<svg
   width="24"
   height="24"
   viewBox="0 0 24.000001 24"
   fill="none"
   version="1.1"
   id="svg8571"
   sodipodi:docname="sonata.svg"
   xml:space="preserve"
   inkscape:version="1.3 (0e150ed6c4, 2023-07-21)"
   xmlns:inkscape="http://www.inkscape.org/namespaces/inkscape"
   xmlns:sodipodi="http://sodipodi.sourceforge.net/DTD/sodipodi-0.dtd"
   xmlns:xlink="http://www.w3.org/1999/xlink"
   xmlns="http://www.w3.org/2000/svg"
   xmlns:svg="http://www.w3.org/2000/svg"><sodipodi:namedview
     id="namedview8573"
     pagecolor="#ffffff"
     bordercolor="#000000"
     borderopacity="0.25"
     inkscape:showpageshadow="2"
     inkscape:pageopacity="0.0"
     inkscape:pagecheckerboard="0"
     inkscape:deskcolor="#d1d1d1"
     showgrid="false"
     inkscape:zoom="13.295057"
     inkscape:cx="-8.2737517"
     inkscape:cy="7.4839845"
     inkscape:window-width="2560"
     inkscape:window-height="998"
     inkscape:window-x="0"
     inkscape:window-y="0"
     inkscape:window-maximized="1"
     inkscape:current-layer="svg8571" /><defs
     id="defs8569"><linearGradient
       inkscape:collect="always"
       id="linearGradient32289"><stop
         style="stop-color:#b3b3b3;stop-opacity:1;"
         offset="0"
         id="stop32285" /><stop
         style="stop-color:#fcfcfc;stop-opacity:1"
         offset="1"
         id="stop32287" /></linearGradient><linearGradient
       id="linearGradient29319"
       inkscape:swatch="solid"><stop
         style="stop-color:#d2d8db;stop-opacity:1;"
         offset="0"
         id="stop29317" /></linearGradient><linearGradient
       id="fffff"
       inkscape:swatch="solid"><stop
         style="stop-color:#ffffff;stop-opacity:1;"
         offset="0"
         id="stop28389" /></linearGradient><linearGradient
       inkscape:collect="always"
       xlink:href="#linearGradient32289"
       id="linearGradient32291"
       x1="47.475021"
       y1="85.061638"
       x2="46.790882"
       y2="-23.26111"
       gradientUnits="userSpaceOnUse" /><linearGradient
       inkscape:collect="always"
       xlink:href="#linearGradient32289"
       id="linearGradient32671"
       gradientUnits="userSpaceOnUse"
       x1="47.475021"
       y1="85.061638"
       x2="46.790882"
       y2="-23.26111" /><linearGradient
       inkscape:collect="always"
       xlink:href="#linearGradient32289"
       id="linearGradient32673"
       gradientUnits="userSpaceOnUse"
       x1="47.475021"
       y1="85.061638"
       x2="46.790882"
       y2="-23.26111" /><linearGradient
       inkscape:collect="always"
       xlink:href="#linearGradient32289"
       id="linearGradient32675"
       gradientUnits="userSpaceOnUse"
       x1="47.475021"
       y1="85.061638"
       x2="46.790882"
       y2="-23.26111" /></defs><g
     id="g16605"
     transform="matrix(0.2404367,0,0,0.2404367,1.0000922,1.0001065)"
     style="fill:url(#linearGradient32291);fill-opacity:1;stroke-width:5.54546"
     inkscape:export-filename="../g16605.svg"
     inkscape:export-xdpi="100.72131"
     inkscape:export-ydpi="100.72131"><g
       id="g16607"
       style="fill:url(#linearGradient32675);fill-opacity:1;stroke-width:5.54546"><g
         id="g16613"
         style="fill:url(#linearGradient32673);fill-opacity:1;stroke-width:5.54546"><path
           d="m 35.75,0.473 c 0.5,0.004 0.977,-0.059 1.43,-0.192 5.972,-0.39 11.945,-0.375 17.914,0.047 5.414,0.422 10.656,1.598 15.722,3.524 8.426,3.468 14.192,9.484 17.293,18.05 1.778,5.157 2.825,10.457 3.145,15.903 0.445,6.843 0.285,13.668 -0.477,20.476 -0.57,4.789 -1.808,9.391 -3.715,13.813 -3.539,7.66 -9.269,12.945 -17.199,15.855 -6.425,2.172 -13.031,3.313 -19.82,3.43 C 42.41,91.773 34.848,91.203 27.367,89.664 13.594,86.594 5.098,78.199 1.879,64.473 0.512,58.293 -0.105,52.039 0.02,45.711 -0.133,38.98 0.582,32.344 2.164,25.805 5.539,12.973 13.684,5.02 26.605,1.949 29.613,1.211 32.664,0.719 35.75,0.473 Z"
           style="fill:url(#linearGradient32671);fill-opacity:1;fill-rule:evenodd;stroke:none;stroke-width:5.54546"
           id="path16621" /></g></g></g><g
     id="g1"
     transform="matrix(0.85987471,0,0,0.85987471,1.6815033,1.7286508)"
     style="stroke-width:1.16296"><g
       transform="matrix(0.42520714,0,0,0.42520714,1.7950288,-5.0631165)"
       stroke-linejoin="round"
       stroke-width="9.55769"
       id="g31051"><circle
         transform="translate(0,16)"
         cx="24"
         cy="24"
         r="20"
         fill="#b3b3b3"
         id="circle31045"
         style="stroke-width:9.55769" /><path
         d="M 24,20 A 20,20 0 0 0 4,40 20,20 0 0 0 24,60 20,20 0 0 0 38.133,54.133 L 24,40 38.13,25.867 A 20,20 0 0 0 24,20"
         fill="#39c458"
         id="path31047"
         style="stroke-width:9.55769" /><circle
         cx="24"
         cy="40"
         r="16"
         fill="#fcfcfc"
         id="circle31049"
         style="stroke-width:9.55769" /></g><path
       d="m 11.999914,3.2229686 1.308378,0.4362311 c 0,0 0.541748,1.6668121 0.977662,2.1027279 0.689782,0.6900956 3.38339,2.2586373 3.38339,5.7472254 0,2.616757 -1.744295,4.361051 -3.925133,5.669429 2.180524,-2.180525 3.052986,-3.052672 3.052986,-5.669429 0,-3.4889029 -3.488905,-3.925134 -3.488905,-3.925134 v 9.496608 c 0,0.970416 -0.914667,2.581166 -2.406987,3.200708 C 9.0092907,21.064976 7.0271963,20.617722 6.4747418,19.282256 5.9222875,17.947418 7.0070382,16.229898 8.8981069,15.446572 10.028213,14.978214 11.087451,14.87081 12.000544,15.264835 Z"
       fill="#4d4d4d"
       fill-rule="evenodd"
       id="path31053"
       style="stroke-width:2.03128" /></g></svg>

<svg xmlns="http://www.w3.org/2000/svg" xmlns:xlink="http://www.w3.org/1999/xlink" xml:space="preserve" width="24" height="24" fill="none"><defs><linearGradient id="a"><stop offset="0" style="stop-color:#b3b3b3;stop-opacity:1"/><stop offset="1" style="stop-color:#fcfcfc;stop-opacity:1"/></linearGradient><linearGradient xlink:href="#a" id="b" x1="47.475" x2="46.791" y1="85.062" y2="-23.261" gradientUnits="userSpaceOnUse"/><linearGradient xlink:href="#a" id="e" x1="47.475" x2="46.791" y1="85.062" y2="-23.261" gradientUnits="userSpaceOnUse"/><linearGradient xlink:href="#a" id="d" x1="47.475" x2="46.791" y1="85.062" y2="-23.261" gradientUnits="userSpaceOnUse"/><linearGradient xlink:href="#a" id="c" x1="47.475" x2="46.791" y1="85.062" y2="-23.261" gradientUnits="userSpaceOnUse"/></defs><g style="fill:url(#b);fill-opacity:1;stroke-width:5.54546"><g style="fill:url(#c);fill-opacity:1;stroke-width:5.54546" transform="matrix(.24044 0 0 .24044 1 1)"><g style="fill:url(#d);fill-opacity:1;stroke-width:5.54546"><path d="M35.75.473c.5.004.977-.059 1.43-.192a131.89 131.89 0 0 1 17.914.047 56.345 56.345 0 0 1 15.722 3.524c8.426 3.468 14.192 9.484 17.293 18.05a59.214 59.214 0 0 1 3.145 15.903 116.03 116.03 0 0 1-.477 20.476 49.45 49.45 0 0 1-3.715 13.813c-3.539 7.66-9.269 12.945-17.199 15.855a65.014 65.014 0 0 1-19.82 3.43 89.267 89.267 0 0 1-22.676-1.715C13.594 86.594 5.098 78.199 1.879 64.473A79.31 79.31 0 0 1 .02 45.711a76.872 76.872 0 0 1 2.144-19.906C5.539 12.973 13.684 5.02 26.605 1.949A57.513 57.513 0 0 1 35.75.473Z" style="fill:url(#e);fill-opacity:1;fill-rule:evenodd;stroke:none;stroke-width:5.54546"/></g></g></g><g style="stroke-width:1.16296"><g stroke-linejoin="round" stroke-width="9.558" transform="matrix(.36562 0 0 .36562 3.225 -2.625)"><circle cx="24" cy="24" r="20" fill="#b3b3b3" style="stroke-width:9.55769" transform="translate(0 16)"/><path fill="#39c458" d="M24 20A20 20 0 0 0 4 40a20 20 0 0 0 20 20 20 20 0 0 0 14.133-5.867L24 40l14.13-14.133A20 20 0 0 0 24 20" style="stroke-width:9.55769"/><circle cx="24" cy="40" r="16" fill="#fcfcfc" style="stroke-width:9.55769"/></g><path fill="#4d4d4d" fill-rule="evenodd" d="m12 3.223 1.308.436s.542 1.667.978 2.103c.69.69 3.383 2.259 3.383 5.747 0 2.617-1.744 4.361-3.925 5.67 2.18-2.18 3.053-3.053 3.053-5.67 0-3.489-3.489-3.925-3.489-3.925v9.497c0 .97-.914 2.58-2.407 3.2-1.892.784-3.874.337-4.426-.999-.553-1.335.532-3.052 2.423-3.835 1.13-.469 2.19-.576 3.103-.182Z" style="stroke-width:2.03128" transform="matrix(.85987 0 0 .85987 1.682 1.729)"/></g></svg>
